icons/sim-card-2-fill.svg

<svg xmlns="http://www.w3.org/2000/svg" width="24" height="24" fill="none"><g clip-path="url(#a)"><g><path fill="#121212" d="M5 2H15L19.707 6.707C19.8946 6.89449 19.9999 7.14881 20 7.414V21C20 21.2652 19.8946 21.5196 19.7071 21.7071C19.5196 21.8946 19.2652 22 19 22H5C4.73478 22 4.48043 21.8946 4.29289 21.7071C4.10536 21.5196 4 21.2652 4 21V3C4 2.73478 4.10536 2.48043 4.29289 2.29289C4.48043 2.10536 4.73478 2 5 2ZM13 18V10H8V12H11V18H13ZM8 13V15H10V13H8ZM14 13V15H16V13H14ZM14 10V12H16V10H14ZM8 16V18H10V16H8ZM14 16V18H16V16H14Z"/></g></g><defs><clipPath id="a"><rect width="24" height="24" fill="white"/></clipPath></defs></svg>

<svg width="24" height="24" fill="none" xmlns="http://www.w3.org/2000/svg"><g clip-path="url(#a)"><path d="M5 2h10l4.707 4.707a1 1 0 0 1 .293.707V21a1 1 0 0 1-1 1H5a1 1 0 0 1-1-1V3a1 1 0 0 1 1-1Zm8 16v-8H8v2h3v6h2Zm-5-5v2h2v-2H8Zm6 0v2h2v-2h-2Zm0-3v2h2v-2h-2Zm-6 6v2h2v-2H8Zm6 0v2h2v-2h-2Z" /></g><defs><clipPath id="a"><path fill="#fff" d="M0 0h24v24H0z"/></clipPath></defs></svg>
